!!!COA:	Josquin des Prez
!!!CDT:	~1450-1521/08/27
!!!COM: Moulu
!!!OPR:	Missa Missus est Gabriel Angelus
!!!ONM:	2
!!!OTL:	Gloria
!!!AGN:	Mass; Gloria
!!!SCT:	NJE 10.2
!!!SCA:	New Josquin Edition 10.2
!!!voices: 4
!!!voices-OPR:	4
**kern	**kern	**kern	**kern
*staff4	*staff3	*staff2	*staff1
*Ivox	*Ivox	*Ivox	*Ivox
*I"Bassus	*I"Tenor	*I"Altus	*I"Superius
*I'B	*I'T	*I'A	*I'S
*clefF4	*clefGv2	*clefGv2	*clefG2
*>[A,B]	*>[A,B]	*>[A,B]	*>[A,B]
*>Gloria[A]	*>Gloria[A]	*>Gloria[A]	*>Gloria[A]
*>QuiTollis[B]	*>QuiTollis[B]	*>QuiTollis[B]	*>QuiTollis[B]
*>A	*>A	*>A	*>A
*k[b-]	*k[b-]	*k[b-]	*k[b-]
*M2/1	*M2/1	*M2/1	*M2/1
*met(C|)	*met(C|)	*met(C|)	*met(C|)
=1-	=1-	=1-	=1-
!!section: Et in terra pax
!!!OMD: Et in terra pax
0r	0r	1.G	1r
.	.	.	[1d
.	.	2G/	.
=2	=2	=2	=2
0r	0r	1G	2d/]
.	.	.	2d/
.	.	1d	1d
=3	=3	=3	=3
0r	0r	1d	1a
.	.	2r	1a
.	.	2c\	.
=4	=4	=4	=4
0r	0r	2d\	2r
.	.	2e\	2g/
.	.	2f\	2a/
.	.	2d\	2b-\
=5	=5	=5	=5
0r	0r	2c\	2cc\
.	.	2d\	2a/
.	.	2e\	2g/
.	.	2f\	2a/
=6	=6	=6	=6
0r	0r	1g	2.b-\
.	.	.	4cc\
.	.	2r	1dd
.	.	2g\	.
=7	=7	=7	=7
0r	0r	2g\	2r
.	.	2g\	2dd\
.	.	1d	2dd\
.	.	.	2dd\
=8	=8	=8	=8
0r	0r	2r	1a
.	.	2d\	.
.	.	2f\	2r
.	.	2d\	2a/
=9	=9	=9	=9
0r	0r	2c\	2cc\
.	.	2d\	2a/
.	.	2G/	2g/
.	.	2d\	2a/
=10	=10	=10	=10
0r	0r	2d\	2d/
.	.	2d\	2a/
.	.	2c\	2a/
.	.	2A/	2a/
=11	=11	=11	=11
0r	0r	1c	2g/
.	.	.	2e/
.	.	2B-\	1g
.	.	2c\	.
=12	=12	=12	=12
1r	0r	2d\	2f/
.	.	2e\	2g/
2r	.	2c\	2a/
[2GG/	.	[2d\	[2b-\
=13	=13	=13	=13
2GG/]	0r	4d\]	4b-\]
.	.	4c\	4a/
2GG/	.	2B-\	1g
1D	.	1A	.
.	.	.	2f#i/
=14	=14	=14	=14
2E\	1r	1G	1g
2E\	.	.	.
[1F	[1D	1r	1r
=15	=15	=15	=15
2F\]	2D/]	0r	0r
4E\	2D/	.	.
4D\	.	.	.
2C/	1A	.	.
2D\	.	.	.
=16	=16	=16	=16
0GG	1.B-	0r	0r
.	2G/	.	.
=17	=17	=17	=17
2r	2A/	0r	0r
2D\	2A/	.	.
2D\	2D/	.	.
2D\	2A/	.	.
=18	=18	=18	=18
1.F	2A/	0r	0r
.	2A/	.	.
.	[1c	.	.
4E\	.	.	.
4D\	.	.	.
=19	=19	=19	=19
0C	2c\]	0r	0r
.	4B-\	.	.
.	4A/	.	.
.	2.G/	.	.
.	4A/	.	.
=20	=20	=20	=20
1.D	2B-\	0r	0r
.	1A	.	.
2D\	4G/	.	.
.	4F/	.	.
=21	=21	=21	=21
2C/	2E/	0r	0r
1F	2.D/	.	.
.	4E/	.	.
4E\	4F/	.	.
4D\	4G/	.	.
=22	=22	=22	=22
1C	4A/	0r	0r
.	4B-\	.	.
.	4c\	.	.
.	4A/	.	.
1D	2B-\	.	.
.	[2A/	.	.
=23	=23	=23	=23
1GG	4A/]	0r	0r
.	4G/	.	.
.	1G	.	.
1AA	.	.	.
.	2F#i/	.	.
=24	=24	=24	=24
1GG	1G	1r	0r
1r	2F/	[1d	.
.	[2G/	.	.
=25	=25	=25	=25
0r	4G/]	2d\]	0r
.	4F/	.	.
.	2D/	2d\	.
.	1E	2c\	.
.	.	2c\	.
=26	=26	=26	=26
1.D	1D	2d\	0r
.	.	1f	.
.	1r	.	.
2D\	.	2d\	.
=27	=27	=27	=27
2C/	1r	1e	0r
2C/	.	.	.
2D\	[1A	2.f\	.
[2F\	.	.	.
.	.	8e\L	.
.	.	8d\J	.
=28	=28	=28	=28
2F\]	2A/]	2c\	0r
2D\	2A/	2.d\	.
1E	2G/	.	.
.	.	4B-\	.
.	2G/	2c\	.
=29	=29	=29	=29
1D	2A/	2F/	1.a
.	2.d\	2.f\	.
1r	.	.	.
.	4c\	4e\	.
.	2A/	2c\	2a/
=30	=30	=30	=30
0r	2B-\	2d\	2g/
.	2c\	2e\	2g/
.	[1F	2f\	2a/
.	.	4e\	[2cc\
.	.	4d\	.
=31	=31	=31	=31
1r	0F]	2c\	2cc\]
.	.	1f	2a/
1BB-	.	.	1b-
.	.	4e\	.
.	.	4d\	.
=32	=32	=32	=32
1C	1r	1e	1g
1D	1F	2.d\	1f
.	.	4c\	.
=33	=33	=33	=33
1E-i	1G	1B-	0r
2C/	1A	1r	.
2D\	.	.	.
=34	=34	=34	=34
2.GG/	1B-	0r	0r
4AA/	.	.	.
2BB-/	2G/	.	.
[2C/	[2A/	.	.
=35	=35	=35	=35
4C/]	4A/]	0r	0r
4BB-/	4D/	.	.
2GG/	1G	.	.
1AA	.	.	.
.	2F#i/	.	.
=36	=36	=36	=36
2GG/	1G	1B-	0r
2G\	.	.	.
2F\	1r	2c\	.
2E\	.	2c\	.
=37	=37	=37	=37
1D	0r	1d	1f
1C	.	1e-i	2g/
.	.	.	2g/
=38	=38	=38	=38
0r	0r	2c\	1a
.	.	2d\	.
.	.	2.G/	1b-
.	.	4A/	.
=39	=39	=39	=39
0r	2r	2B-\	2g/
.	1F	2.c\	2.a/
.	.	4A/	4d/
.	2F/	[2d\	2f/
=40	=40	=40	=40
0r	2G/	2d\]	1e
.	2A/	2c#i\	.
.	1B-	1d	1d
=41	=41	=41	=41
0BB-	1F	0B-	0d
.	2F/	.	.
.	[2G/	.	.
=42	=42	=42	=42
1C	2G/]	2G/	1e
.	1A	2c\	.
1D	.	1F	1d
.	[2B-\	.	.
=43	=43	=43	=43
1E-i	2B-\]	3B-\	1.g
.	.	3c\	.
.	1G	.	.
.	.	3d\	.
1C	.	1e-i	.
.	[2A/	.	4f/
.	.	.	4e/
=44	=44	=44	=44
0D	4A/]	[0d	2f/
.	4D/	.	.
.	2B-\	.	1g
.	1A	.	.
.	.	.	2f#i/
=45	=45	=45	=45
0GG	2G/	1d]	0g
.	1B-	.	.
.	.	1r	.
.	4A/	.	.
.	4G/	.	.
=46	=46	=46	=46
[0D	1.F	1.d	1r
.	.	.	[1a
.	2G/	2d\	.
=47	=47	=47	=47
1D]	0A	1d	2a/]
.	.	.	2a/
1r	.	2.c\	1a
.	.	4d\	.
=48	=48	=48	=48
0r	0r	4e\	2.g/
.	.	4f\	.
.	.	1g	.
.	.	.	4a/
.	.	.	4b-\
.	.	.	4cc\
.	.	4f\	[2dd\
.	.	4e\	.
=49	=49	=49	=49
0D	1r	2d\	4dd\]
.	.	.	4cc\
.	.	1f	2b-\
.	[1A	.	1a
.	.	4e\	.
.	.	4d\	.
=50	=50	=50	=50
2.C/	1A]	2.e\	1r
4D\	.	4f\	.
4E\	2.G/	1g	2r
4F\	.	.	.
[2G\	.	.	[2b-\
.	4A/	.	.
=51	=51	=51	=51
4G\]	4B-\	1r	2b-\]
4F\	4c\	.	.
2D\	1d	.	2a/
1E	.	1G	1g
.	2c#i\	.	.
=52	=52	=52	=52
2D\	1d	2A/	2f/
1G	.	2.B-\	1b-
.	2r	.	.
.	.	4c\	.
2G\	[2d\	4d\	2b-\
.	.	4e\	.
=53	=53	=53	=53
2F\	2d\]	1.f	2a/
2D\	2d\	.	4f/
.	.	.	4g/
2.F\	2c\	.	4a/
.	.	.	4b-\
.	2A/	4c\	[2cc\
4E\	.	4d\	.
=54	=54	=54	=54
4C/	2.c\	4e\	4cc\]
4D\	.	4f\	4b-\
4E\	.	2.g\	4g/
4F\	4B-\	.	4a/
1G	2G/	.	2b-\
.	.	4f\	.
.	2B-\	[2d\	[2g/
=55	=55	=55	=55
1D	1A	1d]	2g/]
.	.	.	2f#i/
2GG/	1G	2B-\	2g/
[2G\	.	[2d\	[2b-\
=56	=56	=56	=56
2G\]	2r	4d\]	2b-\]
.	.	4c\	.
2G\	1d	4d\	2b-\
.	.	4e\	.
2F\	.	[1f	2a/
2D\	2d\	.	4f/
.	.	.	4g/
=57	=57	=57	=57
2.F\	2c\	2f\]	4a/
.	.	.	4b-\
.	2A/	4c\	2.cc\
4E\	.	4d\	.
4C/	2.c\	4e\	.
4D\	.	4f\	4b-\
4E\	.	[2g\	4g/
4F\	4B-\	.	4a/
=58	=58	=58	=58
1G	2G/	4g\]	2b-\
.	.	4f\	.
.	2B-\	1d	1g
1D	1A	.	.
.	.	2d\	2f#i/
=59	=59	=59	=59
0GGl	0Gl	0dl	0gl
!!LO:LB:i:g=z
=60||	=60||	=60||	=60||
*>B	*>B	*>B	*>B
!!section: Qui tollis
!!!OMD: Qui tollis
*M2/1	*M2/1	*M2/1	*M2/1
*met(C|)	*met(C|)	*met(C|)	*met(C|)
0D	0A	0d	0f
=61	=61	=61	=61
1G	1B-	1d	1g
1F	1c	1f	1a
=62	=62	=62	=62
1BB-	1d	1f	1b-
1F	1c	1f	1a
=63	=63	=63	=63
1G	1B-	1d	1g
1G	1B-	1e	[1g
=64	=64	=64	=64
0D	0A	[0d	2g/]
.	.	.	4f#i/
.	.	.	4e/
.	.	.	1f#i
=65	=65	=65	=65
1G	1r	1d]	1g
2.F\	1d	1r	1r
4E\	.	.	.
=66	=66	=66	=66
2F\	2c\	1r	0r
2G\	2B-\	.	.
1E	2c\	1g	.
.	2c\	.	.
=67	=67	=67	=67
1D	1d	2.f\	1dd
.	.	4e\	.
1r	1r	2f\	2cc\
.	.	2g\	2b-\
=68	=68	=68	=68
0r	0r	1e	2cc\
.	.	.	2cc\
.	.	1d	1dd
=69	=69	=69	=69
0D	0d	0f	0a
=70	=70	=70	=70
1G	1B-	1d	1g
1F	1c	1f	1a
=71	=71	=71	=71
1BB-	1d	1f	1b-
1F	1c	1f	1a
=72	=72	=72	=72
1G	1B-	1d	1g
1G	1B-	1e	1g
=73	=73	=73	=73
0D	1A	1d	1f
.	1r	1r	1r
=74	=74	=74	=74
[0A	[0c	[0e	[0a
=75	=75	=75	=75
1A]	1c]	1e]	1a]
1D	1d	1f	1a
=76	=76	=76	=76
0D	0d	0f	0a
=77	=77	=77	=77
1r	1r	1r	1r
1D	1d	1f	1a
=78	=78	=78	=78
1.G	1.d	2g\	1.b-
.	.	4f\	.
.	.	4e\	.
.	.	2d\	.
2G\	2B-\	[2e-i\	2b-\
=79	=79	=79	=79
1F	2c\	2e-\]	1a
.	2F/	1d	.
1E-i	2.G/	.	1g
.	.	2c\	.
.	4A/	.	.
=80	=80	=80	=80
2D\	4B-\	2d\	2f/
.	4G/	.	.
1BB-	1d	1f	1b-
2C/	4c\	2e-i\	4a/
.	4B-\	.	4g/
=81	=81	=81	=81
2D\	2A/	2d\	2f/
2E-i\	2G/	2c\	1g
1D	1A	2.d\	.
.	.	.	2f#i/
.	.	4c\	.
=82	=82	=82	=82
1GG	0G	4B-\	0g
.	.	4A/	.
.	.	2.B-\	.
2r	.	.	.
.	.	4A/	.
[2G\	.	2G/	.
=83	=83	=83	=83
2G\]	2r	1B-	0r
2G\	1d	.	.
2F\	.	1A	.
2D\	2d\	.	.
=84	=84	=84	=84
2E\	2c\	0r	0r
2F\	2A/	.	.
2G\	2B-\	.	.
[2A\	[2c\	.	.
=85	=85	=85	=85
4A\]	2c\]	0r	0r
4G\	.	.	.
1G	2B-\	.	.
.	1A	.	.
2F#i\	.	.	.
=86	=86	=86	=86
1G	1G	1d	1dd
1r	1r	2f\	2cc\
.	.	2g\	2b-\
=87	=87	=87	=87
1r	0r	2f\	2cc\
.	.	2e\	2cc\
2r	.	1d	1dd
[2G\	.	.	.
=88	=88	=88	=88
2G\]	2r	0r	0r
2G\	1d	.	.
2F\	.	.	.
2D\	2d\	.	.
=89	=89	=89	=89
2E\	2c\	0r	0r
2F\	2A/	.	.
2G\	2B-\	.	.
[2A\	[2c\	.	.
=90	=90	=90	=90
4A\]	4c\]	1r	0r
4F\	4A/	.	.
2G\	1d	.	.
1E	.	2r	.
.	2c#i\	[2g\	.
=91	=91	=91	=91
1D	1d	2g\]	2r
.	.	2f\	1dd
1r	1r	2d\	.
.	.	[2f\	2cc\
=92	=92	=92	=92
2r	1r	4f\]	2a/
.	.	4e\	.
1G	.	4d\	1b-
.	.	4c\	.
.	2r	2B-\	.
2F\	[2d\	[2f\	4a/
.	.	.	4g/
=93	=93	=93	=93
2D\	2d\]	2f\]	2f/
1F	2c\	4e\	1a
.	.	4d\	.
.	2A/	2.c\	.
4E\	[2c\	.	4g/
4D\	.	4d\	4f/
=94	=94	=94	=94
2C/	4c\]	2e\	4e/
.	4B-\	.	4d/
2E\	2G/	2c\	1g
1D	1A	1d	.
.	.	.	2f#i/
=95	=95	=95	=95
1GG	1G	2r	1g
.	.	1g	.
1r	1r	.	2r
.	.	2f\	[2dd\
=96	=96	=96	=96
1r	0r	2d\	2dd\]
.	.	2.f\	2cc\
2r	.	.	2a/
.	.	4e\	.
[2G\	.	4d\	[2b-\
.	.	4c\	.
=97	=97	=97	=97
2G\]	2r	2B-\	2b-\]
2F\	1d	1f	4a/
.	.	.	4g/
2D\	.	.	2f/
[2F\	2c\	4e\	[2a/
.	.	4d\	.
=98	=98	=98	=98
2F\]	2A/	2.c\	2a/]
4E\	2.c\	.	4g/
4D\	.	4d\	4f/
2C/	.	2e\	4e/
.	4B-\	.	4d/
2E\	2G/	2c\	[2g/
=99	=99	=99	=99
0D	2.B-\	0d	2g/]
.	.	.	4f#i/
.	4c\	.	4e/
.	1A	.	1f#i
=100	=100	=100	=100
1GG	1G	1d	1g
1r	1r	1r	1r
=101	=101	=101	=101
0G	0B-	0d	0g
=102	=102	=102	=102
0F	0c	0f	0a
=103	=103	=103	=103
0C	0c	0e	0g
=104	=104	=104	=104
[0D	2A/	0d	0f
.	1B-	.	.
.	4A/	.	.
.	4G/	.	.
=105	=105	=105	=105
0D]	0A	1r	2r
.	.	.	2f/
.	.	1d	4f/
.	.	.	4g/
.	.	.	4a/
.	.	.	4b-\
=106	=106	=106	=106
0r	0r	1.e-i	2cc\
.	.	.	4b-\
.	.	.	4a/
.	.	.	2g/
.	.	2d\	2b-\
=107	=107	=107	=107
1r	1r	2c\	2a/
.	.	2B-\	1g
1D	1d	1A	.
.	.	.	2f#i/
=108	=108	=108	=108
1.E-i	2c\	1G	0g
.	4B-\	.	.
.	4A/	.	.
.	2G/	1r	.
2D\	2B-\	.	.
=109	=109	=109	=109
2C/	2A/	1c	1r
2BB-/	1G	.	.
1AA	.	2c\	1a
.	2F#i/	2c\	.
=110	=110	=110	=110
1GG	1G	2.B-\	1.b-
.	.	4c\	.
1r	2r	4d\	.
.	.	4e\	.
.	2F/	4f\	2a/
.	.	4d\	.
=111	=111	=111	=111
0r	2G/	2e\	2.g/
.	2G/	1d	.
.	.	.	4f/
.	2A/	.	2e/
.	2A/	2c#i\	2e/
=112	=112	=112	=112
0r	1D	2.d\	4d/
.	.	.	4e/
.	.	.	4f/
.	.	4e\	4g/
.	2r	2f\	2.a/
.	2d\	4e\	.
.	.	4d\	4b-\
=113	=113	=113	=113
0r	1.e-i	1.c	2cc\
.	.	.	4b-\
.	.	.	4a/
.	.	.	2g/
.	2d\	2d\	2b-\
=114	=114	=114	=114
1r	2c\	2e\	2a/
.	2B-\	1.d	1g
1D	2A/	.	.
.	2A/	.	2f#i/
=115	=115	=115	=115
1.E-i	0G	2B-\	0g
.	.	2.c\	.
.	.	4G/	.
2D\	.	2B-\	.
=116	=116	=116	=116
2C/	1r	2A/	1r
2BB-/	.	1G	.
2AA/	1A	.	1cc
2AA/	.	2F#i/	.
=117	=117	=117	=117
1GG	1.B-	2G/	2.b-\
.	.	2d\	.
.	.	.	4a/
1r	.	2d\	2g/
.	2A/	2c\	2f/
=118	=118	=118	=118
0r	2G/	2B-\	2b-\
.	2F/	2c\	1a
.	2E/	2c\	.
.	2E/	2G/	[2g/
=119	=119	=119	=119
0D	1D	1B-	2g/]
.	.	.	4f#i/
.	.	.	4e/
.	1r	1A	1f#i
=120	=120	=120	=120
0GGl	2r	0Gl	0gl
.	2D/	.	.
.	1Dl	.	.
==	==	==	==
*-	*-	*-	*-
!!!RDF**kern: l=long note in original notation
!!!RDF**kern: i=editorial accidental
!!!ENC:	Will Watson 07/07/2011
!!!END:	2011/07/07/
!!!EED:	Jesse Rodin
!!!EEV:	2011/12/26/
!!attribution-level@Jos: 4 (questionable)
!!!ONB:	Translated from MusicXML and edited on 2011/12/26/ by Craig Sapp
!!muse2ps: T^@{OPR}^u^@{ONM}{. }@{OTL}^C^@{COM}{/}@{COA}?\n@{SCT}^i2I100v85,90,85,150c95Q16
